X:8000
T:Jim Donohue's
R:Reel
S:
H:
N:Tommy & Siobhan Peoples, PJ King, Andrew Macnamara, Kevin Crawford etc
D:Maiden Voyage: Music from Pepper's Bar, Feakle, Co. Clare
Z:Adrian Scahill
M:4/4
L:1/8
K:D
A3F BFAF|BFAF EDB,D|A3F BFAF|EDFE D3F|\
A3F BFAF|DFF2 ABde|f3e dfec|dBAF D4:||\
dffe fgfe|dfed BAFA|Beef (3efe de|fAdf edBd|\
Affe f3e|dfed BAFB|ABde fdAF|EDFE D4:||
